lut/home_meeting.cube
TITLE "Generated by Resolve"
LUT_3D_SIZE 5
0 0.00404364 0
0.453864 0 0
0.915801 0 0
1 0 0
1 0 0
0 0.398856 0
0.339574 0.333791 0
0.933776 0 0
1 0 0
1 0 0
0 0.829847 0
0 0.825467 0
0.743313 0.726452 0
1 0.172702 0
1 0 0
0 1 0
0 1 0
0 1 0
1 1 0
1 0.434531 0
0 1 0
0 1 0
0 1 0
0 1 0
1 1 0
0 0 0.497292
0.406577 0 0.479179
0.891539 0 0.415274
1 0 0.0613107
1 0 0
0 0.321126 0.367849
0.299153 0.240497 0.34081
0.921904 0 0.306432
1 0 0
1 0 0
0 0.81091 0
0 0.805676 0
0.735744 0.702312 0
1 0.0189975 0
1 0 0
0 1 0
0 1 0
0 1 0
1 1 0
1 0.401053 0
0 1 0
0 1 0
0 1 0
0 1 0
1 1 0
0 0 1
0.258579 0 0.99585
0.825376 0 0.960296
1 0 0.833082
1 0 0.308522
0 0 0.986358
0.06981 0 0.975799
0.813443 0 0.938857
1 0 0.79968
1 0 0.222187
0 0.691646 0.786572
0 0.686229 0.798779
0.676493 0.565744 0.755383
1 0 0.685908
1 0 0
0 1 0
0 1 0
0 1 0
1 1 0
1 0.135286 0
0 1 0
0 1 0
0 1 0
0 1 0
1 1 0
0 0 1
0 0 1
0.590127 0 1
1 0 1
1 0 1
0 0 1
0 0 1
0.554757 0 1
1 0 1
1 0 1
0 0 1
0 0 1
0.361364 0 1
1 0 1
1 0 1
0 1 1
0 1 1
0 1 1
1 1 1
1 0 1
0 1 0
0 1 0
0 1 0
0 1 0
1 1 0
0 0 1
0 0 1
0 0 1
0.968353 0 1
1 0 1
0 0 1
0 0 1
0 0 1
0.95874 0 1
1 0 1
0 0 1
0 0 1
0 0 1
0.919417 0 1
1 0 1
0 0 1
0 0 1
0 0 1
0.68719 0 1
1 0 1
0 1 1
0 1 1
0 1 1
0 1 1
1 1 1
