lut/home_meeting.cube
TITLE "Generated by Resolve"
LUT_3D_SIZE 65
0 0.00404364 0
0.0299229 0 0
0.064744 0 0
0.0972915 0 0
0.128603 0 0
0.160998 0 0
0.19234 0 0
0.221607 0 0
0.249516 0 0
0.276463 0 0
0.30277 0 0
0.328618 0 0
0.354147 0 0
0.379461 0 0
0.404578 0 0
0.429465 0 0
0.453864 0 0
0.477134 0 0
0.501854 0 0
0.527214 0 0
0.553124 0 0
0.579599 0 0
0.606653 0 0
0.634302 0 0
0.662577 0 0
0.691524 0 0
0.721172 0 0
0.751568 0 0
0.782727 0 0
0.814694 0 0
0.847501 0 0
0.881193 0 0
0.915801 0 0
0.95137 0 0
0.987915 0 0
1 0 0
1 0 0
1 0 0
1 0 0
1 0 0
1 0 0
1 0 0
1 0 0
1 0 0
1 0 0
1 0 0
1 0 0
1 0 0
1 0 0
1 0 0
1 0 0
1 0 0
1 0 0
1 0 0
1 0 0
1 0 0
1 0 0
1 0 0
1 0 0
1 0 0
1 0 0
1 0 0
1 0 0
1 0 0
1 0 0
0 0.0341497 0
0.0150149 0.0269169 0
0.0497444 0.020798 0
0.0823224 0.015198 0
0.114061 0.00972 0
0.147814 0.00369268 0
0.181964 0 0
0.213077 0 0
0.24242 0 0
0.270558 0 0
0.297871 0 0
0.324651 0 0
0.351034 0 0
0.377203 0 0
0.403204 0 0
0.429099 0 0
0.454917 0 0
0.480598 0 0
0.505928 0 0
0.529488 0 0
0.55436 0 0
0.580377 0 0
0.607156 0 0
0.634638 0 0
0.662806 0 0
0.691691 0 0
0.721294 0 0
0.751644 0 0
0.782788 0 0
0.81474 0 0
0.847547 0 0
0.881224 0 0
0.915846 0 0
0.951415 0 0
0.987961 0 0
1 0 0
1 0 0
1 0 0
1 0 0
1 0 0
1 0 0
1 0 0
1 0 0
1 0 0
1 0 0
1 0 0
1 0 0
1 0 0
1 0 0
1 0 0
1 0 0
1 0 0
1 0 0
1 0 0
1 0 0
1 0 0
1 0 0
1 0 0
1 0 0
1 0 0
1 0 0
1 0 0
1 0 0
1 0 0
1 0 0
0 0.0603342 0
0 0.0537423 0
0.0368963 0.0467689 0
0.0694591 0.0410315 0
0.100694 0.0355993 0
0.132799 0.0300603 0
0.167056 0.0241703 0
0.199481 0.0176394 0
0.230869 0.0102235 0
0.261921 0.00181582 0
0.290806 0 0
0.318791 0 0
0.346197 0 0
0.373266 0 0
0.400107 0 0
0.426841 0 0
0.453513 0 0
0.48014 0 0
0.506706 0 0
0.533089 0 0
0.558938 0 0
0.582589 0 0
0.608392 0 0
0.635431 0 0
0.66334 0 0
0.692058 0 0
0.721553 0 0
0.751827 0 0
0.782925 0 0
0.814847 0 0
0.847623 0 0
0.8813 0 0
0.915908 0 0
0.951476 0 0
0.988037 0 0
1 0 0
1 0 0
1 0 0
1 0 0
1 0 0
1 0 0
1 0 0
1 0 0
1 0 0
1 0 0
1 0 0
1 0 0
1 0 0
1 0 0
1 0 0
1 0 0
1 0 0
1 0 0
1 0 0
1 0 0
1 0 0
1 0 0
1 0 0
1 0 0
1 0 0
1 0 0
1 0 0
1 0 0
1 0 0
1 0 0
0 0.0851606 0
0 0.0791028 0
0.0241245 0.0716716 0
0.0572671 0.0656596 0
0.0886091 0.0601205 0
0.120607 0.0545357 0
0.15494 0.048661 0
0.188312 0.0423285 0
0.219532 0.0353704 0
0.249561 0.0277104 0
0.279133 0.0191958 0
0.309941 0.00918593 0
0.339345 0 0
0.367697 0 0
0.39559 0 0
0.423224 0 0
0.450736 0 0
0.478187 0 0
0.505623 0 0
0.532998 0 0
0.560265 0 0
0.587167 0 0
0.612573 0 0
0.637125 0 0
0.664378 0 0
0.692744 0 0
0.722026 0 0
0.752163 0 0
0.783169 0 0
0.81503 0 0
0.847776 0 0
0.881422 0 0
0.916014 0 0
0.951568 0 0
0.988113 0 0
1 0 0
1 0 0
1 0 0
1 0 0
1 0 0
1 0 0
1 0 0
1 0 0
1 0 0
1 0 0
1 0 0
1 0 0
1 0 0
1 0 0
1 0 0
1 0 0
1 0 0
1 0 0
1 0 0
1 0 0
1 0 0
1 0 0
1 0 0
1 0 0
1 0 0
1 0 0
1 0 0
1 0 0
1 0 0
1 0 0
0 0.109163 0
0 0.103365 0
0.0106966 0.0960708 0
0.0451362 0.0896315 0
0.0768139 0.0839399 0
0.108919 0.0782635 0
0.142901 0.0723125 0
0.177905 0.0660105 0
0.210056 0.0591592 0
0.240528 0.0516976 0
0.270039 0.0434882 0
0.299077 0.0344701 0
0.328191 0.024445 0
0.358938 0.0128023 0
0.389197 0.000381476 0
0.418158 0 0
0.446708 0 0
0.475059 0 0
0.503334 0 0
0.531579 0 0
0.559777 0 0
0.587854 0 0
0.615595 0 0
0.642252 0 0
0.666438 0 0
0.69395 0 0
0.722805 0 0
0.752712 0 0
0.783551 0 0
0.81532 0 0
0.84799 0 0
0.88159 0 0
0.916152 0 0
0.951675 0 0
0.98822 0 0
1 0 0
1 0 0
1 0 0
1 0 0
1 0 0
1 0 0
1 0 0
1 0 0
1 0 0
1 0 0
1 0 0
1 0 0
1 0 0
1 0 0
1 0 0
1 0 0
1 0 0
1 0 0
1 0 0
1 0 0
1 0 0
1 0 0
1 0 0
1 0 0
1 0 0
1 0 0
1 0 0
1 0 0
1 0 0
1 0 0
0 0.133822 0
0 0.128191 0
0 0.121828 0
0.0321355 0.114443 0
0.0644236 0.108522 0
0.0968032 0.102708 0
0.130892 0.0966812 0
0.166918 0.0903487 0
0.200381 0.0835431 0
0.231708 0.0761425 0
0.261723 0.0680858 0
0.290959 0.0592813 0
0.319844 0.0496071 0
0.348745 0.0389563 0
0.378119 0.0271153 0
0.409873 0.0133211 0
0.440726 0 0
0.47042 0 0
0.499748 0 0
0.528939 0 0
0.558053 0 0
0.587091 0 0
0.616007 0 0
0.644556 0 0
0.672099 0 0
0.696376 0 0
0.724178 0 0
0.753597 0 0
0.784176 0 0
0.815747 0 0
0.84831 0 0
0.881834 0 0
0.91635 0 0
0.951843 0 0
0.988373 0 0
1 0 0
1 0 0
1 0 0
1 0 0
1 0 0
1 0 0
1 0 0
1 0 0
1 0 0
1 0 0
1 0 0
1 0 0
1 0 0
1 0 0
1 0 0
1 0 0
1 0 0
1 0 0
1 0 0
1 0 0
1 0 0
1 0 0
1 0 0
1 0 0
1 0 0
1 0 0
1 0 0
1 0 0
1 0 0
1 0 0
0 0.160388 0
0 0.154559 0
0 0.148577 0
0.0173953 0.1411 0
0.0508736 0.134813 0
0.0836805 0.128832 0
0.117998 0.122683 0
0.15462 0.116274 0
0.189837 0.109453 0
0.222339 0.102098 0
0.253147 0.0941329 0
0.282902 0.0854353 0
0.312062 0.0759442 0
0.340948 0.0655528 0
0.369894 0.0541543 0
0.399207 0.0415656 0
0.429435 0.0275425 0
0.46276 0.0111391 0
0.494179 0 0
0.524712 0 0
0.55494 0 0
0.585016 0 0
0.614984 0 0
0.644755 0 0
0.674159 0 0
0.702525 0 0
0.727047 0 0
0.755169 0 0
0.785168 0 0
0.816449 0 0
0.848814 0 0
0.882216 0 0
0.916625 0 0
0.952071 0 0
0.988556 0 0
1 0 0
1 0 0
1 0 0
1 0 0
1 0 0
1 0 0
1 0 0
1 0 0
1 0 0
1 0 0
1 0 0
1 0 0
1 0 0
1 0 0
1 0 0
1 0 0
1 0 0
1 0 0
1 0 0
1 0 0
1 0 0
1 0 0
1 0 0
1 0 0
1 0 0
1 0 0
1 0 0
1 0 0
1 0 0
1 0 0
0 0.186404 0
0 0.181628 0
0 0.176394 0
0 0.170245 0
0.0357977 0.16318 0
0.0693675 0.157107 0
0.104051 0.1505 0
0.140551 0.143969 0
0.178058 0.137118 0
0.212085 0.129778 0
0.243946 0.121843 0
0.274464 0.113237 0
0.304128 0.103868 0
0.333349 0.0936294 0
0.362387 0.0824598 0
0.391516 0.0702068 0
0.421012 0.056733 0
0.451225 0.0418402 0
0.482979 0.0251011 0
0.51783 0.00582895 0
0.549935 0 0
0.581369 0 0
0.612512 0 0
0.643473 0 0
0.674189 0 0
0.704463 0 0
0.733623 0 0
0.758434 0 0
0.786923 0 0
0.817563 0 0
0.849577 0 0
0.882765 0 0
0.917052 0 0
0.952392 0 0
0.988815 0 0
1 0 0
1 0 0
1 0 0
1 0 0
1 0 0
1 0 0
1 0 0
1 0 0
1 0 0
1 0 0
1 0 0
1 0 0
1 0 0
1 0 0
1 0 0
1 0 0
1 0 0
1 0 0
1 0 0
1 0 0
1 0 0
1 0 0
1 0 0
1 0 0
1 0 0
1 0 0
1 0 0
1 0 0
1 0 0
1 0 0
0 0.211292 0
0 0.20708 0
0 0.202518 0
0 0.197406 0
0.0184634 0.190707 0
0.0535134 0.184817 0
0.0888228 0.179049 0
0.125673 0.173037 0
0.16463 0.166613 0
0.200671 0.159594 0
0.233906 0.151431 0
0.2654 0.142885 0
0.295781 0.133593 0
0.325505 0.123491 0
0.354879 0.112459 0
0.384176 0.10042 0
0.413596 0.0872358 0
0.443412 0.0727703 0
0.473869 0.0568399 0
0.50547 0.0391394 0
0.540642 0.018616 0
0.575357 0 0
0.60824 0 0
0.640589 0 0
0.672633 0 0
0.704341 0 0
0.735515 0 0
0.765469 0 0
0.79057 0 0
0.819486 0 0
0.850797 0 0
0.883604 0 0
0.917662 0 0
0.95285 0 0
0.989181 0 0
1 0 0
1 0 0
1 0 0
1 0 0
1 0 0
1 0 0
1 0 0
1 0 0
1 0 0
1 0 0
1 0 0
1 0 0
1 0 0
1 0 0
1 0 0
1 0 0
1 0 0
1 0 0
1 0 0
1 0 0
1 0 0
1 0 0
1 0 0
1 0 0
1 0 0
1 0 0
1 0 0
1 0 0
1 0 0
1 0 0
0 0.235416 0
0 0.231662 0
0 0.227649 0
0 0.223224 0
0 0.218051 0
0.0356603 0.21146 0
0.0719921 0.205921 0
0.109392 0.200351 0
0.148653 0.194537 0
0.187686 0.188327 0
0.222721 0.181506 0
0.255482 0.173938 0
0.286793 0.165393 0
0.317205 0.155657 0
0.347082 0.144427 0
0.376715 0.13254 0
0.406332 0.11957 0
0.436149 0.105364 0
0.466361 0.0898146 0
0.49723 0.0727092 0
0.529091 0.0538186 0
0.562799 0.0326543 0
0.600824 0.00808728 0
0.635554 0 0
0.669261 0 0
0.70248 0 0
0.735256 0 0
0.767361 0 0
0.798093 0 0
0.823468 0 0
0.852872 0 0
0.884932 0 0
0.918563 0 0
0.953521 0 0
0.98967 0 0
1 0 0
1 0 0
1 0 0
1 0 0
1 0 0
1 0 0
1 0 0
1 0 0
1 0 0
1 0 0
1 0 0
1 0 0
1 0 0
1 0 0
1 0 0
1 0 0
1 0 0
1 0 0
1 0 0
1 0 0
1 0 0
1 0 0
1 0 0
1 0 0
1 0 0
1 0 0
1 0 0
1 0 0
1 0 0
1 0 0
0 0.259052 0
0 0.255695 0
0 0.25211 0
0 0.248234 0
0 0.243885 0
0.0146792 0.237736 0
0.0532082 0.232013 0
0.0914473 0.226673 0
0.131212 0.221256 0
0.172641 0.215579 0
0.21004 0.209491 0
0.244434 0.202823 0
0.276951 0.195407 0
0.308248 0.187076 0
0.338811 0.177646 0
0.368933 0.166842 0
0.398901 0.153979 0
0.428931 0.140002 0
0.45919 0.124712 0
0.489891 0.107973 0
0.521248 0.0895857 0
0.553536 0.0693217 0
0.58735 0.0467994 0
0.625727 0.0206455 0
0.663264 0 0
0.698558 0 0
0.733074 0 0
0.766964 0 0
0.800046 0 0
0.831556 0 0
0.85713 0 0
0.887144 0 0
0.919966 0 0
0.954482 0 0
0.990387 0 0
1 0 0
1 0 0
1 0 0
1 0 0
1 0 0
1 0 0
1 0 0
1 0 0
1 0 0
1 0 0
1 0 0
1 0 0
1 0 0
1 0 0
1 0 0
1 0 0
1 0 0
1 0 0
1 0 0
1 0 0
1 0 0
1 0 0
1 0 0
1 0 0
1 0 0
1 0 0
1 0 0
1 0 0
1 0 0
1 0 0
0 0.282399 0
0 0.279377 0
0 0.276158 0
0 0.272709 0
0 0.26894 0
0 0.264332 0
0.0318456 0.257786 0
0.071519 0.25243 0
0.112032 0.247227 0
0.154772 0.241901 0
0.195392 0.236332 0
0.231922 0.23032 0
0.265965 0.223728 0
0.298405 0.216419 0
0.329839 0.208225 0
0.360647 0.198978 0
0.391119 0.188434 0
0.421485 0.176303 0
0.451972 0.162127 0
0.482765 0.145373 0
0.514015 0.127337 0
0.545922 0.107546 0
0.578775 0.0857862 0
0.612985 0.0616922 0
0.649775 0.0345922 0
0.691325 0.0033875 0
0.728496 0 0
0.764416 0 0
0.799512 0 0
0.833631 0 0
0.865904 0 0
0.8916 0 0
0.922301 0 0
0.955978 0 0
0.991424 0 0
1 0 0
1 0 0
1 0 0
1 0 0
1 0 0
1 0 0
1 0 0
1 0 0
1 0 0
1 0 0
1 0 0
1 0 0
1 0 0
1 0 0
1 0 0
1 0 0
1 0 0
1 0 0
1 0 0
1 0 0
1 0 0
1 0 0
1 0 0
1 0 0
1 0 0
1 0 0
1 0 0
1 0 0
1 0 0
1 0 0
0 0.305592 0
0 0.302861 0
0 0.299962 0
0 0.29688 0
0 0.293538 0
0 0.289647 0
0.00474556 0.284321 0
0.049134 0.278004 0
0.0908064 0.272831 0
0.133898 0.26772 0
0.178195 0.26247 0
0.217548 0.256947 0
0.253529 0.25098 0
0.287404 0.244419 0
0.319936 0.237156 0
0.351614 0.229038 0
0.382757 0.219898 0
0.413672 0.209522 0
0.444526 0.197635 0
0.475547 0.183841 0
0.506874 0.16759 0
0.538735 0.148043 0
0.571283 0.126741 0
0.604761 0.103319 0
0.639521 0.0774548 0
0.676417 0.0486152 0
0.719524 0.0149081 0
0.759075 0 0
0.796567 0 0
0.832959 0 0
0.868132 0 0
0.901137 0 0
0.92694 0 0
0.958419 0 0
0.992981 0 0
1 0 0
1 0 0
1 0 0
1 0 0
1 0 0
1 0 0
1 0 0
1 0 0
1 0 0
1 0 0
1 0 0
1 0 0
1 0 0
1 0 0
1 0 0
1 0 0
1 0 0
1 0 0
1 0 0
1 0 0
1 0 0
1 0 0
1 0 0
1 0 0
1 0 0
1 0 0
1 0 0
1 0 0
1 0 0
1 0 0
0 0.328756 0
0 0.326268 0
0 0.323659 0
0 0.320882 0
0 0.317906 0
0 0.314504 0
0 0.310277 0
0.0231632 0.303838 0
0.0671092 0.298344 0
0.111223 0.293278 0
0.157504 0.288212 0
0.200763 0.283024 0
0.239292 0.277531 0
0.274998 0.271565 0
0.308888 0.265003 0
0.341634 0.257755 0
0.373632 0.249668 0
0.405219 0.240574 0
0.436622 0.230289 0
0.468055 0.21854 0
0.499657 0.20499 0
0.531624 0.189136 0
0.564111 0.170245 0
0.597345 0.147234 0
0.63151 0.122026 0
0.666941 0.0942245 0
0.704295 0.0633555 0
0.746471 0.0279545 0
0.79028 0 0
0.829557 0 0
0.867308 0 0
0.903593 0 0
0.937316 0 0
0.96318 0 0
0.995529 0 0
1 0 0
1 0 0
1 0 0
1 0 0
1 0 0
1 0 0
1 0 0
1 0 0
1 0 0
1 0 0
1 0 0
1 0 0
1 0 0
1 0 0
1 0 0
1 0 0
1 0 0
1 0 0
1 0 0
1 0 0
