lut/home_meeting.cube
TITLE "Generated by Resolve"
LUT_3D_SIZE 9
0 0.00404364 0
0.249516 0 0
0.453864 0 0
0.662577 0 0
0.915801 0 0
1 0 0
1 0 0
1 0 0
1 0 0
0 0.211292 0
0.16463 0.166613 0
0.413596 0.0872358 0
0.672633 0 0
0.917662 0 0
1 0 0
1 0 0
1 0 0
1 0 0
0 0.398856 0
0 0.378042 0
0.339574 0.333791 0
0.609781 0.251362 0
0.933776 0 0
1 0 0
1 0 0
1 0 0
1 0 0
0 0.599542 0
0 0.591745 0
0.103716 0.559243 0
0.524285 0.513008 0
0.852018 0.419104 0
1 0.0450141 0
1 0 0
1 0 0
1 0 0
0 0.829847 0
0 0.830167 0
0 0.825467 0
0.275914 0.781399 0
0.743313 0.726452 0
1 0.610178 0
1 0.172702 0
1 0 0
1 0 0
0 1 0
0 1 0
0 1 0
0 1 0
0.440589 1 0
1 0.987549 0
1 0.838026 0
1 0.317006 0
1 0 0
0 1 0
0 1 0
0 1 0
0 1 0
0 1 0
0.613062 1 0
1 1 0
1 1 0
1 0.434531 0
0 1 0
0 1 0
0 1 0
0 1 0
0 1 0
0 1 0
0.779599 1 0
1 1 0
1 1 0
0 1 0
0 1 0
0 1 0
0 1 0
0 1 0
0 1 0
0 1 0
0.85655 1 0
1 1 0
0 0 0.276616
0.22153 0 0.269535
0.433494 0 0.255131
0.649912 0 0.214618
0.904906 0 0.114382
1 0 0
1 0 0
1 0 0
1 0 0
0 0.155901 0.179278
0.135378 0.104692 0.16112
0.407965 0.0224613 0.146532
0.663111 0 0.110704
0.909209 0 0
1 0 0
1 0 0
1 0 0
1 0 0
0 0.374655 0
0 0.353796 0
0.327153 0.305486 0
0.605051 0.211795 0
0.93431 0 0
1 0 0
1 0 0
1 0 0
1 0 0
0 0.586892 0
0 0.578973 0
0.0767987 0.546822 0
0.51838 0.497993 0
0.850004 0.399542 0
1 0 0
1 0 0
1 0 0
1 0 0
0 0.823682 0
0 0.823835 0
0 0.818998 0
0.262592 0.774609 0
0.741009 0.718441 0
1 0.599741 0
1 0.120867 0
1 0 0
1 0 0
0 1 0
0 1 0
0 1 0
0 1 0
0.435096 1 0
1 0.983963 0
1 0.833036 0
1 0.292973 0
1 0 0
0 1 0
0 1 0
0 1 0
0 1 0
0 1 0
0.61178 1 0
1 1 0
1 1 0
1 0.423468 0
0 1 0
0 1 0
0 1 0
0 1 0
0 1 0
0 1 0
0.781445 1 0
1 1 0
1 1 0
0 1 0
0 1 0
0 1 0
0 1 0
0 1 0
0 1 0
0 1 0
0.862699 1 0
1 1 0
0 0 0.497292
0.17438 0 0.486702
0.406577 0 0.479179
0.632044 0 0.45919
0.891539 0 0.415274
1 0 0.321843
1 0 0.0613107
1 0 0
1 0 0
0 0.0386358 0.457328
0.0964065 0 0.46215
0.399649 0 0.463279
0.633463 0 0.433799
0.892088 0 0.376913
1 0 0.266178
1 0 0
1 0 0
1 0 0
0 0.321126 0.367849
0 0.298497 0.362097
0.299153 0.240497 0.34081
0.594202 0.110582 0.326268
0.921904 0 0.306432
1 0 0.0920729
1 0 0
1 0 0
1 0 0
0 0.558434 0
0 0.550378 0
0.0188602 0.520516 0
0.504173 0.465537 0
0.844022 0.357382 0
1 0 0
1 0 0
1 0 0
1 0 0
0 0.81091 0
0 0.810773 0
0 0.805676 0
0.234211 0.760876 0
0.735744 0.702312 0
1 0.57882 0
1 0.0189975 0
1 0 0
1 0 0
0 1 0
0 1 0
0 1 0
0 1 0
0.424033 1 0
1 0.976822 0
1 0.823194 0
1 0.238788 0
1 0 0
0 1 0
0 1 0
0 1 0
0 1 0
0 1 0
0.609033 1 0
1 1 0
1 1 0
1 0.401053 0
0 1 0
0 1 0
0 1 0
0 1 0
0 1 0
0 1 0
0.784573 1 0
1 1 0
1 1 0
0 1 0
0 1 0
0 1 0
0 1 0
0 1 0
0 1 0
0 1 0
0.873442 1 0
1 1 0
0 0 0.736584
0.0699016 0 0.723293
0.35848 0 0.714076
0.59971 0 0.700236
0.868086 0 0.671122
1 0 0.612345
1 0 0.49369
1 0 0.215991
1 0 0
0 0 0.71574
0 0 0.711727
0.329915 0 0.700298
0.591058 0 0.686381
0.86598 0 0.654765
1 0 0.592004
1 0 0.466499
1 0 0.160311
1 0 0
0 0.182788 0.669734
0 0.14519 0.67274
0.253162 0.0560159 0.666484
0.59736 0 0.6822
0.871733 0 0.631128
1 0 0.552499
1 0 0.409628
1 0 0
1 0 0
0 0.494118 0.563149
0 0.485252 0.564034
0 0.458457 0.556268
0.470848 0.388663 0.52932
0.827024 0.244541 0.510307
1 0 0.495811
1 0 0.245335
1 0 0
1 0 0
0 0.772992 0.100893
0 0.772503 0.0924239
0 0.76733 0.0717632
0.151308 0.724392 0
0.717922 0.661418 0
1 0.528237 0
1 0 0
1 0 0
1 0 0
0 1 0
0 1 0
0 1 0
0 1 0
0.397894 1 0
1 0.96025 0
1 0.801083 0
1 0.0678569 0
1 0 0
0 1 0
0 1 0
0 1 0
0 1 0
0 1 0
0.602014 1 0
1 1 0
1 1 0
1 0.346563 0
0 1 0
0 1 0
0 1 0
0 1 0
0 1 0
0 1 0
0.789746 1 0
1 1 0
1 1 0
0 1 0
0 1 0
0 1 0
0 1 0
0 1 0
0 1 0
0 1 0
0.892836 1 0
1 1 0
0 0 1
0 0 1
0.258579 0 0.99585
0.540291 0 0.982727
0.825376 0 0.960296
1 0 0.916899
1 0 0.833082
1 0 0.669032
1 0 0.308522
0 0 1
0 0 1
0.21033 0 0.987884
0.525719 0 0.974823
0.820432 0 0.952102
1 0 0.907454
1 0 0.821515
1 0 0.653727
1 0 0.280476
0 0 0.986358
0 0 0.988373
0.06981 0 0.975799
0.499443 0 0.963149
0.813443 0 0.938857
1 0 0.890532
1 0 0.79968
1 0 0.624048
1 0 0.222187
0 0.336629 0.92575
0 0.324605 0.932601
0 0.290806 0.937819
0.416541 0.168383 0.922881
0.839689 0 0.951705
1 0 0.864744
1 0 0.754559
1 0 0.558221
1 0 0.0602731
0 0.691646 0.786572
0 0.691264 0.792309
0 0.686229 0.798779
0 0.652399 0.788846
0.676493 0.565744 0.755383
1 0.392782 0.730831
1 0 0.685908
1 0 0.375143
1 0 0
0 1 0.260319
0 1 0.263432
0 1 0.265293
0 1 0.255268
0.312703 0.985061 0.150393
0.986801 0.909163 0
1 0.74107 0
1 0 0
1 0 0
0 1 0
0 1 0
0 1 0
0 1 0
0 1 0
0.581079 1 0
1 1 0
1 1 0
1 0.135286 0
0 1 0
0 1 0
0 1 0
0 1 0
0 1 0
0 1 0
0.796277 1 0
1 1 0
1 1 0
0 1 0
0 1 0
0 1 0
0 1 0
0 1 0
0 1 0
0 1 0
0.925887 1 0
1 1 0
0 0 1
0 0 1
0 0 1
0.420996 0 1
0.746395 0 1
1 0 1
1 0 1
1 0 1
1 0 0.851072
0 0 1
0 0 1
0 0 1
0.398688 0 1
0.738582 0 1
1 0 1
1 0 1
1 0 1
1 0 0.842252
0 0 1
0 0 1
0 0 1
0.351995 0 1
0.724147 0 1
1 0 1
1 0 1
1 0 1
1 0 0.825635
0 0 1
0 0 1
0 0 1
0.218021 0 1
0.697292 0 1
1 0 1
1 0 1
1 0 1
1 0 0.79115
0 0.482292 1
0 0.484916 1
0 0.481666 1
0 0.451057 1
0.608362 0.308782 1
1 0 1
1 0 1
1 0 0.993851
1 0 0.714366
0 0.906432 1
0 0.914824 1
0 0.925826 1
0 0.93489 1
0.00390631 0.894942 1
0.934691 0.787808 1
1 0.570443 1
1 0 0.906859
1 0 0.500847
0 1 0.296223
0 1 0.31516
0 1 0.358968
0 1 0.398184
0 1 0.428489
0.485435 1 0.332998
1 1 0.0367285
1 1 0
1 0 0
0 1 0
0 1 0
0 1 0
0 1 0
0 1 0
0 1 0
0.794797 1 0
1 1 0
1 1 0
0 1 0
0 1 0
0 1 0
0 1 0
0 1 0
0 1 0
0 1 0
0.976669 1 0
1 1 0
0 0 1
0 0 1
0 0 1
0.0654002 0 1
0.590127 0 1
0.988769 0 1
1 0 1
1 0 1
1 0 1
0 0 1
0 0 1
0 0 1
0 0 1
0.578103 0 1
0.984787 0 1
1 0 1
1 0 1
1 0 1
0 0 1
0 0 1
0 0 1
0 0 1
0.554757 0 1
0.977432 0 1
1 0 1
1 0 1
1 0 1
0 0 1
0 0 1
0 0 1
0 0 1
0.503029 0 1
0.962997 0 1
1 0 1
1 0 1
1 0 1
0 0 1
0 0 1
0 0 1
0 0 1
0.361364 0 1
0.937026 0 1
1 0 1
1 0 1
1 0 1
0 0.585016 1
0 0.591974 1
0 0.610071 1
0 0.655436 1
0 0.645319 1
0.847547 0.46833 1
1 0 1
1 0 1
1 0 1
0 1 1
0 1 1
0 1 1
0 1 1
0 1 1
0.129747 1 1
1 1 1
1 0.793454 1
1 0 1
0 1 0.261692
0 1 0.269657
0 1 0.284794
0 1 0.316854
0 1 0.396948
0 1 0.592233
0.69395 1 0.520775
1 1 0.213092
1 1 0
0 1 0
0 1 0
0 1 0
0 1 0
0 1 0
0 1 0
0 1 0
1 1 0
1 1 0
0 0 1
0 0 1
0 0 1
0 0 1
0.180545 0 1
0.774105 0 1
1 0 1
1 0 1
1 0 1
0 0 1
0 0 1
0 0 1
0 0 1
0.143984 0 1
0.767529 0 1
1 0 1
1 0 1
1 0 1
0 0 1
0 0 1
0 0 1
0 0 1
0.0551614 0 1
0.755123 0 1
1 0 1
1 0 1
1 0 1
0 0 1
0 0 1
0 0 1
0 0 1
0 0 1
0.729366 0 1
1 0 1
1 0 1
1 0 1
0 0 1
0 0 1
0 0 1
0 0 1
0 0 1
0.671931 0 1
1 0 1
1 0 1
1 0 1
0 0 1
0 0 1
0 0 1
0 0 1
0 0 1
0.514717 0 1
1 0 1
1 0 1
1 0 1
0 0.695842 1
0 0.700801 1
0 0.710323 1
0 0.731121 1
0 0.791501 1
0 0.888167 1
1 0.664546 1
1 0 1
1 0 1
0 1 1
0 1 1
0 1 1
0 1 1
0 1 1
0 1 1
0.293782 1 1
1 1 1
1 1 1
0 1 0.14139
0 1 0.147692
0 1 0.159335
0 1 0.182528
0 1 0.22974
0 1 0.332174
0 1 0.688853
0.956466 1 0.74493
1 1 0.391531
0 0 1
0 0 1
0 0 1
0 0 1
0 0 1
0.243015 0 1
0.968353 0 1
1 0 1
1 0 1
0 0 1
0 0 1
0 0 1
0 0 1
0 0 1
0.224063 0 1
0.964996 0 1
1 0 1
1 0 1
0 0 1
0 0 1
0 0 1
0 0 1
0 0 1
0.185824 0 1
0.95874 0 1
1 0 1
1 0 1
0 0 1
0 0 1
0 0 1
0 0 1
0 0 1
0.091371 0 1
0.946044 0 1
1 0 1
1 0 1
0 0 1
0 0 1
0 0 1
0 0 1
0 0 1
0 0 1
0.919417 0 1
1 0 1
1 0 1
0 0 1
0 0 1
0 0 1
0 0 1
0 0 1
0 0 1
0.858824 0 1
1 0 1
1 0 1
0 0 1
0 0 1
0 0 1
0 0 1
0 0 1
0 0 1
0.68719 0 1
1 0 1
1 0 1
0 0.779065 1
0 0.783734 1
0 0.792401 1
0 0.809735 1
0 0.84564 1
0 0.929015 1
0 1 1
1 0.913603 1
1 0 1
0 1 1
0 1 1
0 1 1
0 1 1
0 1 1
0 1 1
0 1 1
0.465415 1 1
1 1 1
